icon-svg/other-reading.svg

<svg xmlns="http://www.w3.org/2000/svg" fill="#44739e" viewBox="0 0 24 24"><path d="M24 11.004h-4c-.553 0-1-.447-1-1s.447-1 1-1h4c.553 0 1 .447 1 1s-.447 1-1 1m0 5h-4c-.553 0-1-.447-1-1s.447-1 1-1h4c.553 0 1 .447 1 1s-.447 1-1 1m0 5h-4c-.553 0-1-.447-1-1s.447-1 1-1h4c.553 0 1 .447 1 1s-.447 1-1 1m-7 0c0 .553-.447 1-1 1s-1-.447-1-1v-11c0-.553.447-1 1-1s1 .447 1 1zm-5-10H8c-.553 0-1-.447-1-1s.447-1 1-1h4c.553 0 1 .447 1 1s-.447 1-1 1m0 5H8c-.553 0-1-.447-1-1s.447-1 1-1h4c.553 0 1 .447 1 1s-.447 1-1 1m0 5H8c-.553 0-1-.447-1-1s.447-1 1-1h4c.553 0 1 .447 1 1s-.447 1-1 1M26.996 6H18c-1.021 0-2 1-2 1s-1.021-1-2-1H5.002C4.448 6 4 6.449 4 7.002V23c0 .555.449 1.004 1.004 1.004h7.008c1.969 0 1.975 2 2.988 2h2c1 0 1.027-2 3.006-2h6.989c.555 0 1.005-.45 1.005-1.005V7.004C28 6.449 27.551 6 26.996 6"/></svg>

<?xml version="1.0" encoding="UTF-8"?>
<svg width="32px" height="32px" viewBox="0 0 32 32" fill="#44739e" version="1.1" xmlns="http://www.w3.org/2000/svg" xmlns:xlink="http://www.w3.org/1999/xlink">
            <path d="M24,11.004 L20,11.004 C19.447,11.004 19,10.557 19,10.004 C19,9.451 19.447,9.004 20,9.004 L24,9.004 C24.553,9.004 25,9.451 25,10.004 C25,10.557 24.553,11.004 24,11.004 Z M24,16.004 L20,16.004 C19.447,16.004 19,15.557 19,15.004 C19,14.451 19.447,14.004 20,14.004 L24,14.004 C24.553,14.004 25,14.451 25,15.004 C25,15.557 24.553,16.004 24,16.004 Z M24,21.004 L20,21.004 C19.447,21.004 19,20.557 19,20.004 C19,19.451 19.447,19.004 20,19.004 L24,19.004 C24.553,19.004 25,19.451 25,20.004 C25,20.557 24.553,21.004 24,21.004 Z M17,21.004 C17,21.557 16.553,22.004 16,22.004 C15.447,22.004 15,21.557 15,21.004 L15,10.004 C15,9.451 15.447,9.004 16,9.004 C16.553,9.004 17,9.451 17,10.004 L17,21.004 Z M12,11.004 L8,11.004 C7.447,11.004 7,10.557 7,10.004 C7,9.451 7.447,9.004 8,9.004 L12,9.004 C12.553,9.004 13,9.451 13,10.004 C13,10.557 12.553,11.004 12,11.004 Z M12,16.004 L8,16.004 C7.447,16.004 7,15.557 7,15.004 C7,14.451 7.447,14.004 8,14.004 L12,14.004 C12.553,14.004 13,14.451 13,15.004 C13,15.557 12.553,16.004 12,16.004 Z M12,21.004 L8,21.004 C7.447,21.004 7,20.557 7,20.004 C7,19.451 7.447,19.004 8,19.004 L12,19.004 C12.553,19.004 13,19.451 13,20.004 C13,20.557 12.553,21.004 12,21.004 Z M26.996,6 L18,6 C16.979,6 16,7 16,7 C16,7 14.979,6 14,6 L5.002,6 C4.448,6 4,6.449 4,7.002 L4,23 C4,23.555 4.449,24.004 5.004,24.004 L12.012,24.004 C13.981,24.004 13.987,26.004 15,26.004 L17,26.004 C18,26.004 18.027,24.004 20.006,24.004 L26.995,24.004 C27.55,24.004 28,23.554 28,22.999 L28,7.004 C28,6.449 27.551,6 26.996,6 Z"></path>

</svg>
